packages/sources/icons/src/vitamix/volume-up-fill.svg

<svg width="16" height="16" viewBox="0 0 16 16" xmlns="http://www.w3.org/2000/svg"><path fill-rule="evenodd" clip-rule="evenodd" d="M3.92608 10.6666H1.33341C0.965225 10.6666 0.666748 10.3682 0.666748 9.99998V5.99998C0.666748 5.63179 0.965225 5.33331 1.33341 5.33331H3.92608L7.45541 2.44531C7.55509 2.36359 7.69296 2.34666 7.80944 2.40184C7.92593 2.45702 8.00017 2.57441 8.00008 2.70331V13.2966C8.00017 13.4255 7.92593 13.5429 7.80944 13.5981C7.69296 13.6533 7.55509 13.6364 7.45541 13.5546L3.92608 10.6666ZM12.9374 13.4226L11.9934 12.4786C13.2717 11.3412 14.0021 9.71106 14.0001 7.99997C14.0017 6.19908 13.1928 4.49307 11.7974 3.35463L12.7441 2.40797C14.3883 3.79993 15.3355 5.84569 15.3334 7.99997C15.3334 10.1486 14.4094 12.0813 12.9374 13.4226ZM9.62737 10.1126L10.5754 11.0606C11.4467 10.3266 12 9.22796 12 7.99996C12.0011 6.72859 11.3968 5.53266 10.3727 4.7793L9.41337 5.73863C10.1667 6.20996 10.6667 7.04663 10.6667 7.99996C10.6675 8.82745 10.2834 9.60822 9.62737 10.1126Z"/></svg>

<svg width="16" height="16" xmlns="http://www.w3.org/2000/svg"><path fill-rule="evenodd" clip-rule="evenodd" d="M3.926 10.667H1.333A.667.667 0 0 1 .667 10V6c0-.368.298-.667.666-.667h2.593l3.53-2.888A.333.333 0 0 1 8 2.703v10.594a.333.333 0 0 1-.545.258l-3.529-2.888Zm9.011 2.756-.944-.944A5.985 5.985 0 0 0 14 8a5.988 5.988 0 0 0-2.203-4.645l.947-.947A7.317 7.317 0 0 1 15.334 8a7.315 7.315 0 0 1-2.397 5.423Zm-3.31-3.31.948.948A3.991 3.991 0 0 0 12 8a3.994 3.994 0 0 0-1.627-3.22l-.96.959A2.663 2.663 0 0 1 10.667 8c0 .827-.384 1.608-1.04 2.113Z"/></svg>
